X:17
T:Leaving for Ireland
R:reel
C:Paul Cranford
O:Cape Breton Island
S:http://www.cranfordpub.com
D:The Lighthouse, Paul Cranford, 1996
B:The Lighthouse Collection, Paul Stewart Cranford
Z:psc, (re-formatted,updated 9/20/04)
N:
H:                                                    copyrights Cranford Publications, SOCAN
L:1/8
Q:333
M:C|
K:D
B|ADFA d2 de|faef dB B2|a2 af efed|BdAF EFGB|
ADFA d2 de|faef dB B2|a2 af edfe|dBAF Add:|
|:f|a2 af edef|adfa beef|a2 af edfe|dBAF Addf|
a2 af edef|adfa beef|g2 gb adfe|dBAF Add:|
